res/open-preview_light.svg

<svg xmlns="http://www.w3.org/2000/svg" xmlns:xlink="http://www.w3.org/1999/xlink" width="16" height="16" preserveAspectRatio="xMidYMid meet" viewBox="0 0 16 16" style="-ms-transform: rotate(360deg); -webkit-transform: rotate(360deg); transform: rotate(360deg);"><g fill="#626262"><path fill-rule="evenodd" clip-rule="evenodd" d="M3 1h11l1 1v5.3a3.21 3.21 0 0 0-1-.3V2H9v10.88L7.88 14H3l-1-1V2l1-1zm0 12h5V2H3v11zm10.379-4.998a2.53 2.53 0 0 0-1.19.348h-.03a2.51 2.51 0 0 0-.799 3.53L9 14.23l.71.71l2.35-2.36c.325.22.7.358 1.09.4a2.47 2.47 0 0 0 1.14-.13a2.51 2.51 0 0 0 1-.63a2.46 2.46 0 0 0 .58-1a2.63 2.63 0 0 0 .07-1.15a2.53 2.53 0 0 0-1.35-1.81a2.53 2.53 0 0 0-1.211-.258zm.24 3.992a1.5 1.5 0 0 1-.979-.244a1.55 1.55 0 0 1-.56-.68a1.49 1.49 0 0 1-.08-.86a1.49 1.49 0 0 1 1.18-1.18a1.49 1.49 0 0 1 .86.08c.276.117.512.311.68.56a1.5 1.5 0 0 1-1.1 2.324z"/></g><rect x="0" y="0" width="16" height="16" fill="rgba(0, 0, 0, 0)" /></svg>

<?xml version="1.0" encoding="UTF-8" standalone="no"?>
<svg
   xmlns:dc="http://purl.org/dc/elements/1.1/"
   xmlns:cc="http://creativecommons.org/ns#"
   xmlns:rdf="http://www.w3.org/1999/02/22-rdf-syntax-ns#"
   xmlns:svg="http://www.w3.org/2000/svg"
   xmlns="http://www.w3.org/2000/svg"
   xmlns:sodipodi="http://sodipodi.sourceforge.net/DTD/sodipodi-0.dtd"
   xmlns:inkscape="http://www.inkscape.org/namespaces/inkscape"
   width="16"
   height="16"
   preserveAspectRatio="xMidYMid meet"
   viewBox="0 0 16 16"
   style="-ms-transform: rotate(360deg); -webkit-transform: rotate(360deg); transform: rotate(360deg);"
   version="1.1"
   id="svg60"
   sodipodi:docname="open-preview_light.svg"
   inkscape:version="1.0.2 (e86c870, 2021-01-15)">
  <metadata
     id="metadata66">
    <rdf:RDF>
      <cc:Work
         rdf:about="">
        <dc:format>image/svg+xml</dc:format>
        <dc:type
           rdf:resource="http://purl.org/dc/dcmitype/StillImage" />
      </cc:Work>
    </rdf:RDF>
  </metadata>
  <defs
     id="defs64" />
  <sodipodi:namedview
     pagecolor="#ffffff"
     bordercolor="#666666"
     borderopacity="1"
     objecttolerance="10"
     gridtolerance="10"
     guidetolerance="10"
     inkscape:pageopacity="0"
     inkscape:pageshadow="2"
     inkscape:window-width="1848"
     inkscape:window-height="1016"
     id="namedview62"
     showgrid="false"
     inkscape:zoom="53.25"
     inkscape:cx="11.206206"
     inkscape:cy="9.3897632"
     inkscape:window-x="72"
     inkscape:window-y="27"
     inkscape:window-maximized="1"
     inkscape:current-layer="svg60"
     inkscape:snap-page="true" />
  <g
     fill="#626262"
     id="g58"
     transform="translate(0.05749567,1.06)">
    <path
       fill-rule="evenodd"
       clip-rule="evenodd"
       d="m 3,1 h 11 l 1,1 V 7.3 A 3.21,3.21 0 0 0 14,7 V 2 H 9 V 12.88 L 7.88,14 H 3 L 2,13 V 2 Z M 3,13 H 8 V 2 H 3 Z M 13.379,8.002 a 2.53,2.53 0 0 0 -1.19,0.348 h -0.03 A 2.51,2.51 0 0 0 11.36,11.88 L 9,14.23 l 0.71,0.71 2.35,-2.36 c 0.325,0.22 0.7,0.358 1.09,0.4 a 2.47,2.47 0 0 0 1.14,-0.13 2.51,2.51 0 0 0 1,-0.63 2.46,2.46 0 0 0 0.58,-1 2.63,2.63 0 0 0 0.07,-1.15 2.53,2.53 0 0 0 -1.35,-1.81 2.53,2.53 0 0 0 -1.211,-0.258 z m 0.24,3.992 A 1.5,1.5 0 0 1 12.64,11.75 1.55,1.55 0 0 1 12.08,11.07 1.49,1.49 0 0 1 12,10.21 1.49,1.49 0 0 1 13.18,9.03 1.49,1.49 0 0 1 14.04,9.11 c 0.276,0.117 0.512,0.311 0.68,0.56 a 1.5,1.5 0 0 1 -1.1,2.324 z"
       id="path56" />
  </g>
  <rect
     style="fill:#bc0000;fill-opacity:1"
     id="rect68"
     width="9.9867382"
     height="3.2634501"
     x="1.5498414"
     y="4.8885317"
     ry="0.97134674" />
  <text
     xml:space="preserve"
     style="font-style:normal;font-weight:normal;font-size:2.81387px;line-height:1.25;font-family:sans-serif;letter-spacing:0.25px;fill:#000000;fill-opacity:1;stroke:none;stroke-width:1.0552"
     x="2.9634807"
     y="7.9245429"
     id="text895"
     transform="scale(1.0551998,0.94768783)"><tspan
       sodipodi:role="line"
       id="tspan893"
       x="2.9634807"
       y="7.9245429"
       style="font-size:2.81387px;fill:#ffffff;stroke-width:1.0552"
       dx="0">DBC</tspan></text>
</svg>
